X: 673
T: Biandan ge
%%abc-version 2.0
%%abcx-abcm2ps-target-version 5.9.1 (29 Sep 2008)
%%abc-creator hum2abc beta
%%abcx-conversion-date 2013/10/02 07:52:30
%%abc-edited-by Helmut Schaffrath
%%humdrum-veritas 1247194981
%%humdrum-veritas-data 2374182298
%%continueall 1
%%barnumbers 0
L: 1/8
M: 2/4
K: G
G2D2 [I:setbarnb 1]| 
G2D2 | 
d> g d B | 
dA2G | 
A4 | 
d g d g | 
d g d g | 
dA2G | 
A4 | 
d2A3/ A/ | 
d2A3/ A/ | 
G> F G A | 
D4 | 
G A G3/ A/ | 
D B,D2 | 
G A G3/ A/ | 
D/ E/ D/ B,/D2 | 
G> A d g/ e/ | 
d B A G | 
G F G A | 
D4 |]  



